X: 40619
T: Tonn Cliodhna
R: jig
M: 6/8
K: Edorian
|:EFG BdB|BdB BAF|DEF ABA|ABA AFD|
EFG BdB|BdB BAF|DEF ABA|1 AFD E2 B,:|2 AFD E3||
|:efe efe|efg gag|fgf ~d2 A|def (f/g/a)f|
efe efe|efg gag|EFG BdB|AFD E3:|
|:efe efe|efe edB|ded ded|dAF AFD|
efe efe|efe edB|EFG BdB|1 AFD E3:|2 AFD E2 B,||

